src/pos-icons/arrow-top-right-bold-outline.svg

<svg height="24" viewBox="0 0 24 24" width="24" xmlns="http://www.w3.org/2000/svg"><path d="m5.64 4.22h14.14v14.14l-4.24-4.24-5.66 5.66-5.66-5.66 5.66-5.66zm12.02 2.12h-7.07l2.12 2.12-5.66 5.66 2.83 2.83 5.66-5.66 2.12 2.12z"/></svg>

<?xml version="1.0" encoding="UTF-8"?><!DOCTYPE svg PUBLIC "-//W3C//DTD SVG 1.1//EN" "http://www.w3.org/Graphics/SVG/1.1/DTD/svg11.dtd"><svg xmlns="http://www.w3.org/2000/svg" xmlns:xlink="http://www.w3.org/1999/xlink" version="1.1" id="mdi-arrow-top-right-bold-outline" width="24" height="24" viewBox="0 0 24 24"><path d="M5.64,4.22H19.78V18.36L15.54,14.12L9.88,19.78L4.22,14.12L9.88,8.46L5.64,4.22M17.66,6.34H10.59L12.71,8.46L7.05,14.12L9.88,16.95L15.54,11.29L17.66,13.41V6.34H17.66Z" /></svg>
